X: 363
T: Fan shen
%%abc-version 2.0
%%abcx-abcm2ps-target-version 5.9.1 (29 Sep 2008)
%%abc-creator hum2abc beta
%%abcx-conversion-date 2013/10/02 07:52:30
%%abc-edited-by Helmut Schaffrath
%%humdrum-veritas 876736066
%%humdrum-veritas-data 1015669270
%%continueall 1
%%barnumbers 0
L: 1/16
M: 2/4
K: G
B2 B A B A B G [I:setbarnb 1]| 
E6B2 | 
A B A G F2 E B, | 
D8 | 
E2 A2 G2 F E | 
D E G2 B,3 B | 
A B A G F2 E B, | 
D8 |]  



